src/assets/home/user.svg

<svg width="38" height="39" viewBox="0 0 38 39" fill="none" xmlns="http://www.w3.org/2000/svg">
<g clip-path="url(#clip0_8_644)">
<path d="M19.7917 16.3333C19.7917 13.7208 17.6542 11.5833 15.0417 11.5833C12.4292 11.5833 10.2917 13.7208 10.2917 16.3333C10.2917 18.9458 12.4292 21.0833 15.0417 21.0833C17.6542 21.0833 19.7917 18.9458 19.7917 16.3333ZM15.0417 17.9167C14.1709 17.9167 13.4584 17.2042 13.4584 16.3333C13.4584 15.4625 14.1709 14.75 15.0417 14.75C15.9125 14.75 16.625 15.4625 16.625 16.3333C16.625 17.2042 15.9125 17.9167 15.0417 17.9167ZM25.3334 21.0833C27.0909 21.0833 28.5 19.6742 28.5 17.9167C28.5 16.1592 27.0909 14.75 25.3334 14.75C23.5759 14.75 22.1509 16.1592 22.1667 17.9167C22.1667 19.6742 23.5759 21.0833 25.3334 21.0833ZM18.9842 3.6825C10.2442 3.6825 3.15088 10.7758 3.15088 19.5158C3.15088 28.2558 10.2442 35.3492 18.9842 35.3492C27.7242 35.3492 34.8175 28.2558 34.8175 19.5158C34.8175 10.7758 27.7242 3.6825 18.9842 3.6825ZM9.24671 27.6067C10.3234 26.7517 12.8409 25.8492 15.0417 25.8492C15.1525 25.8492 15.2792 25.865 15.4059 25.865C15.7859 24.8517 16.4667 23.8225 17.4642 22.92C16.5775 22.7617 15.7384 22.6667 15.0417 22.6667C12.9834 22.6667 9.67421 23.3792 7.55255 24.9308C6.76088 23.2842 6.31755 21.4475 6.31755 19.5C6.31755 12.5175 12.0017 6.83333 18.9842 6.83333C25.9667 6.83333 31.6509 12.5175 31.6509 19.5C31.6509 21.4 31.2234 23.205 30.4634 24.8358C28.88 23.9017 26.7267 23.4583 25.3334 23.4583C22.9267 23.4583 18.2084 24.7408 18.2084 27.7333V32.135C14.6142 31.9292 11.4159 30.2192 9.24671 27.6067Z" fill="#FFFDE7"/>
</g>
<defs>
<clipPath id="clip0_8_644">
<rect width="38" height="38" fill="white" transform="translate(0 0.5)"/>
</clipPath>
</defs>
</svg>

<svg width="38" height="39" fill="none" xmlns="http://www.w3.org/2000/svg"><g clip-path="url(#prefix__clip0_8_644)"><path d="M19.792 16.333a4.764 4.764 0 00-4.75-4.75 4.764 4.764 0 00-4.75 4.75 4.764 4.764 0 004.75 4.75 4.764 4.764 0 004.75-4.75zm-4.75 1.584c-.871 0-1.584-.713-1.584-1.584 0-.87.713-1.583 1.584-1.583.87 0 1.583.713 1.583 1.583 0 .871-.713 1.584-1.583 1.584zm10.291 3.166a3.156 3.156 0 003.167-3.166 3.156 3.156 0 00-3.167-3.167c-1.757 0-3.182 1.41-3.166 3.167a3.156 3.156 0 003.166 3.166zm-6.349-17.4c-8.74 0-15.833 7.093-15.833 15.833s7.093 15.833 15.833 15.833 15.834-7.093 15.834-15.833S27.724 3.683 18.984 3.683zM9.247 27.607c1.076-.855 3.594-1.758 5.795-1.758.11 0 .237.016.364.016.38-1.013 1.06-2.042 2.058-2.945-.886-.158-1.726-.253-2.422-.253-2.059 0-5.368.712-7.49 2.264A12.483 12.483 0 016.319 19.5c0-6.982 5.684-12.667 12.666-12.667 6.983 0 12.667 5.684 12.667 12.667 0 1.9-.428 3.705-1.188 5.336-1.583-.934-3.736-1.378-5.13-1.378-2.406 0-7.125 1.283-7.125 4.275v4.402a12.563 12.563 0 01-8.961-4.528z" fill="#FFFDE7"/></g><defs><clipPath id="prefix__clip0_8_644"><path fill="#fff" transform="translate(0 .5)" d="M0 0h38v38H0z"/></clipPath></defs></svg>
